assets/img/create_profile/progress.svg

<svg width="462" height="479" fill="none" xmlns="http://www.w3.org/2000/svg"><path opacity=".11" d="M249.747 475.798c105.508 0 191.039-11.644 191.039-26.007 0-14.363-85.531-26.007-191.039-26.007-105.507 0-191.038 11.644-191.038 26.007 0 14.363 85.531 26.007 191.038 26.007z" fill="#FFCE3B"/><path opacity=".11" d="M452.992 303.485c2.281 56.038-52.579 182.478-212.767 174.917C89.287 471.277-60.071 351.129 24.559 161.505 106.342-21.738 253.493-6.521 305.366 7.991c57.355 16.046 221.207 81.047 127.471 189.232-150.405 173.586 15.503-7.991 20.155 106.262z" fill="#FFCE3B"/><path d="M176.406 125.346 142.976 93.2l-58.462 60.798 33.426 32.142a149.068 149.068 0 0 1 58.466-60.794zM101.345 254.38c0-14.652 2.134-28.804 6.09-42.173H61.066v84.346h46.369a148.405 148.405 0 0 1-6.09-42.173zM249.747 105.977c14.652 0 28.804 2.134 42.174 6.09V65.698h-84.347v46.369a148.41 148.41 0 0 1 42.173-6.09zM381.556 186.14l33.426-32.142L356.519 93.2l-33.429 32.146a149.068 149.068 0 0 1 58.466 60.794zM392.061 212.207a148.44 148.44 0 0 1 6.089 42.173 148.44 148.44 0 0 1-6.089 42.173h46.368v-84.346h-46.368zM323.09 383.415l33.429 32.145 58.463-60.798-33.426-32.142c-13.214 25.471-33.59 46.625-58.466 60.795zM117.94 322.62l-33.426 32.142 58.463 60.798 33.429-32.146a149.068 149.068 0 0 1-58.466-60.794zM249.747 402.782a148.41 148.41 0 0 1-42.173-6.089v46.369h84.347v-46.369a148.416 148.416 0 0 1-42.174 6.089z" fill="#FFCE3B"/><path d="M410.864 250.656c-1.946-88.968-74.625-160.505-164.06-160.505a163.85 163.85 0 0 0-53.753 9.05c-12.25 4.246-23.811 9.938-34.542 16.815-11.57 7.415-22.169 16.211-31.519 26.202-10.173 10.871-18.909 23.103-25.849 36.428-11.792 22.641-18.49 48.359-18.49 75.658 0 5.166.258 10.269.724 15.313 6.44 69.588 56.298 126.588 122.245 143.627a164.452 164.452 0 0 0 41.184 5.213c90.658 0 164.153-73.493 164.153-164.153 0-1.223-.066-2.431-.093-3.648zm-164.06 110.527c-9.286 0-18.294-1.188-26.883-3.413-43.757-11.336-76.566-49.709-79.688-96.218-.162-2.401-.309-4.806-.309-7.248 0-18.172 4.571-35.261 12.573-50.239 5.011-9.378 11.41-17.887 18.868-25.337 5.271-5.265 11.106-9.956 17.372-14.042 7.586-4.947 15.815-8.99 24.584-11.881a106.714 106.714 0 0 1 33.483-5.38c57.804 0 104.859 45.895 106.786 103.231.041 1.213.092 2.425.092 3.648 0 59.028-47.852 106.879-106.878 106.879z" fill="#FFCE3B"/><path fill-rule="evenodd" clip-rule="evenodd" d="M167.574 329.187s-5.487 4.097-8.294 6.191a2.854 2.854 0 0 1-3.288.089 4.88 4.88 0 0 1-1.194-7.007l4.872-6.453 7.904 7.18z" fill="#FCD2B1"/><path fill-rule="evenodd" clip-rule="evenodd" d="M264.308 294.201c4.091 3.01 11.43 6.123 14.099 9.541 17.143 21.957-.952 38.825-25.643 21.963-39.685-27.103-35.434-37.235-85.536 6.892l-11.351-8.885c36.797-61.16 51.109-71.675 108.431-29.511z" fill="#0E538C"/><path fill-rule="evenodd" clip-rule="evenodd" d="m217.841 397.389-3.243 12.009a2.774 2.774 0 0 1-3.031 2.029 3.442 3.442 0 0 1-2.977-3.849l1.79-13.99 7.461 3.801z" fill="#FCD2B1"/><path fill-rule="evenodd" clip-rule="evenodd" d="M217.362 408.193c-.019-.566-11.028-1.526-11.157-1.092-.037.054-.054.116-.073.178a12.745 12.745 0 0 1-13.711 9.028 2.817 2.817 0 0 0-1.058.075c-3.808 1.017-5.924 3.177-6.308 6.512 10.755 1.418 21.679 1.16 32.786-.911l-.479-13.79zM161.599 335.643c.261-.502-8.84-6.769-9.166-6.455a.598.598 0 0 0-.151.118 12.745 12.745 0 0 1-16.38 1.089 2.858 2.858 0 0 0-.957-.458c-3.815-.994-6.722-.159-8.701 2.551 8.655 6.542 18.284 11.706 28.967 15.386l6.388-12.231z" fill="#0B4870"/><path d="M144.633 338.582s.042.017 0 0z" fill="#0B4870"/><path fill-rule="evenodd" clip-rule="evenodd" d="M279.368 317.165c5.076.2 12.898-1.335 17.025 0 26.503 8.576 17.526 40.512-12.374 40.383-48.056-.206-48.63-7.706-64.523 42.745l-11.646-1.109c-3.801-71.275.414-84.813 71.518-82.019z" fill="#0E538C"/><path fill-rule="evenodd" clip-rule="evenodd" d="M286.328 290.658s7.449 5.05 10.791 1.466c3.341-3.584 1.025 7.36 1.025 7.36l-3.8 4.001-6.879-6.593-6.963-7.427 5.826 1.193zM324.993 256.366c-4.837-5.442-13.543-14.994-13.543-14.994s-15.006 4.84-13.306 14.209a376.236 376.236 0 0 1 2.684 17.006l19.249-5.294s9.752-5.486 4.916-10.927z" fill="#FCD2B1"/><path fill-rule="evenodd" clip-rule="evenodd" d="M298.102 255.581s5.025 48.852-12.98 52.62l-1.102 8.964s16.595-4.358 20.224-11.755c3.629-7.398 8.024-44.48 8.024-44.48-6.745.51-11.649-1.068-14.166-5.349z" fill="#0B4870"/><path fill-rule="evenodd" clip-rule="evenodd" d="M280.158 214.701c-6.598 4.774-9.108 13.335-7.193 21.745.341 1.497 1.898 8.597 3.789 11.326 9.546 13.78 25.542 10.168 31.544 5.827 9.257-6.697 10.468-20.849 2.702-31.583-7.765-10.734-21.585-14.011-30.842-7.315z" fill="#FFE3CA"/><path fill-rule="evenodd" clip-rule="evenodd" d="M259.707 226.988c.817 17.178 27.211.41 28.164-3.504-.141 5.462 2.498 9.703 7.67 12.832 0 0-1.126 5.518 3.751 8.019 4.875 2.5 12.659 8.092 16.824 3.334 2.845-3.251 3.553-10.225 4.178-16.03 2.697-25.034-18.633-21.886-23.278-24.043 0 0-38.715-10.196-37.309 19.392z" fill="#0B4870"/><path fill-rule="evenodd" clip-rule="evenodd" d="M294.959 237.243a5.604 5.604 0 1 1 11.21 0v.543a6.146 6.146 0 0 1-6.146 6.146h-5.064v-6.689z" fill="#FFE3CA"/><path d="M315.292 214.532c-.024-.115 0 0 0 0z" fill="#602600"/><path d="m247.564 266.231 42.71 34.075 1.298-1.644-42.105-33.253c-.722-.246-1.47.274-1.903.822z" fill="#D3D3D3"/><path fill-rule="evenodd" clip-rule="evenodd" d="m248.718 266.231 42.206 33.253-6.892 17.468-42.206-33.254 6.892-17.467z" fill="#F7F7F7"/><path d="M283.043 316.784c-.357 1.705.189 2.219 1.993 1.075l7.196-18.374c-.316-.973-1.078-1.1-2.286-.382l-6.903 17.681z" fill="#D3D3D3"/><path d="M240.641 283.311c-.209.639-.152.777.318 1.206l42.191 33.793 1.309-1.636-41.585-33.307 6.137-17.136h-1.445l-6.925 17.08z" fill="#D3D3D3"/><path fill-rule="evenodd" clip-rule="evenodd" d="M288.359 315.324c7.851 3.115 11.987 19.657 13.947 38.507 74.533-20.763 49.718-82.214 19.06-101.515-1.298 6.244-5.661 7.667-12.911 8.614-.208 20.415-1.423 32.012-20.096 54.394z" fill="#0B4870"/><path fill-rule="evenodd" clip-rule="evenodd" d="M294.653 318.038a55.756 55.756 0 0 0-5.821-2.016 5.736 5.736 0 0 1-3.766-3.15c-1.412-3.09-3.713-5.752-6.957-7.961a4.679 4.679 0 0 1-1.472-1.611c-.559-1.001-1.327-2.39-1.327-2.39-.56-.997-1.298-1.435-2.069-1.425a1.748 1.748 0 0 0-1.441 2.758c.989 1.504 2.651 3.863 3.743 5.412a.42.42 0 0 1-.484.639c-.616-.228-1.279-.251-1.968-.108a4.193 4.193 0 0 1-3.624-1.001c-1.347-1.203-2.908-2.342-4.717-3.414-1.29-.765-2.485.758-2.402 2.367l9.904 7.53c7.903.868 14.072 5.121 19.897 10.044-.001 0 7.553-3.615 2.504-5.674z" fill="#FCD2B1"/><path fill-rule="evenodd" clip-rule="evenodd" d="M311.614 317.859c-6.283 1.974-13.659 1.327-16.782.283-2.106-.703-5.443 3.792-3.117 5.143 5.14 2.986 15.129 7.856 23.662 10.409 1.506-5.382-1.503-11.29-3.763-15.835z" fill="#FCD2B1"/><path fill-rule="evenodd" clip-rule="evenodd" d="M314.7 333.486c16.406 4.759 48.863-5.624 27.8-60.148-1.055-2.73-8.431-11.229-18.254-7.709-3.896 1.395-12.242 7.766-6.936 19.112 11.63 24.867 1.639 30.843-7.554 33.73 4.071 4.431 6.447 9.64 4.944 15.015z" fill="#0E538C"/><path d="M276.908 286.082c-1.122.014-2.353.277-2.676 1.303-.363 1.152.781 2.384 2.087 2.146 2.66-.453 5.344 1.278 7.877 3.019 0 0 2.217.656 2.611-1.007.361-1.523-1.809-2.629-3.669-3.625-1.937-1.037-4.024-1.865-6.23-1.836z" fill="#FCD2B1"/></svg>

<svg width="462" height="479" viewBox="0 0 462 479" fill="none" xmlns="http://www.w3.org/2000/svg">
<path opacity="0.11" d="M249.747 475.798C355.255 475.798 440.786 464.154 440.786 449.791C440.786 435.428 355.255 423.784 249.747 423.784C144.24 423.784 58.709 435.428 58.709 449.791C58.709 464.154 144.24 475.798 249.747 475.798Z" fill="#FFCE3B"/>
<path opacity="0.11" d="M452.992 303.485C455.273 359.523 400.413 485.963 240.225 478.402C89.2874 471.277 -60.0709 351.129 24.5591 161.505C106.342 -21.7382 253.493 -6.52135 305.366 7.99071C362.721 24.0365 526.573 89.0378 432.837 197.223C282.432 370.809 448.34 189.232 452.992 303.485Z" fill="#FFCE3B"/>
<path d="M176.406 125.346L142.976 93.2L84.5137 153.998L117.94 186.14C131.154 160.669 151.53 139.515 176.406 125.346Z" fill="#FFCE3B"/>
<path d="M101.345 254.38C101.345 239.728 103.479 225.576 107.435 212.207H61.0664V296.553H107.435C103.479 283.184 101.345 269.032 101.345 254.38Z" fill="#FFCE3B"/>
<path d="M249.747 105.977C264.399 105.977 278.551 108.111 291.921 112.067V65.698H207.574V112.067C220.944 108.111 235.095 105.977 249.747 105.977Z" fill="#FFCE3B"/>
<path d="M381.556 186.14L414.982 153.998L356.519 93.2L323.09 125.346C347.966 139.515 368.342 160.669 381.556 186.14Z" fill="#FFCE3B"/>
<path d="M392.061 212.207C396.016 225.576 398.15 239.728 398.15 254.38C398.15 269.032 396.016 283.184 392.061 296.553H438.429V212.207H392.061Z" fill="#FFCE3B"/>
<path d="M323.09 383.415L356.519 415.56L414.982 354.762L381.556 322.62C368.342 348.091 347.966 369.245 323.09 383.415Z" fill="#FFCE3B"/>
<path d="M117.94 322.62L84.5137 354.762L142.977 415.56L176.406 383.414C151.53 369.245 131.154 348.091 117.94 322.62Z" fill="#FFCE3B"/>
<path d="M249.747 402.782C235.095 402.782 220.944 400.649 207.574 396.693V443.062H291.921V396.693C278.551 400.649 264.399 402.782 249.747 402.782Z" fill="#FFCE3B"/>
<path d="M410.864 250.656C408.918 161.688 336.239 90.1511 246.804 90.1511C227.971 90.1511 209.898 93.3644 193.051 99.2017C180.801 103.447 169.24 109.139 158.509 116.016C146.939 123.431 136.34 132.227 126.99 142.218C116.817 153.089 108.081 165.321 101.141 178.646C89.3486 201.287 82.6504 227.005 82.6504 254.304C82.6504 259.47 82.9093 264.573 83.3747 269.617C89.8149 339.205 139.673 396.205 205.62 413.244C218.781 416.644 232.58 418.457 246.804 418.457C337.462 418.457 410.957 344.964 410.957 254.304C410.957 253.081 410.891 251.873 410.864 250.656ZM246.804 361.183C237.518 361.183 228.51 359.995 219.921 357.77C176.164 346.434 143.355 308.061 140.233 261.552C140.071 259.151 139.924 256.746 139.924 254.304C139.924 236.132 144.495 219.043 152.497 204.065C157.508 194.687 163.907 186.178 171.365 178.728C176.636 173.463 182.471 168.772 188.737 164.686C196.323 159.739 204.552 155.696 213.321 152.805C223.856 149.331 235.105 147.425 246.804 147.425C304.608 147.425 351.663 193.32 353.59 250.656C353.631 251.869 353.682 253.081 353.682 254.304C353.682 313.332 305.83 361.183 246.804 361.183Z" fill="#FFCE3B"/>
<path fill-rule="evenodd" clip-rule="evenodd" d="M167.574 329.187C167.574 329.187 162.087 333.284 159.28 335.378C158.313 336.1 156.996 336.135 155.992 335.467C154.871 334.723 154.108 333.547 153.882 332.221C153.656 330.894 153.988 329.533 154.798 328.46C157.041 325.489 159.67 322.007 159.67 322.007L167.574 329.187Z" fill="#FCD2B1"/>
<path fill-rule="evenodd" clip-rule="evenodd" d="M264.308 294.201C268.399 297.211 275.738 300.324 278.407 303.742C295.55 325.699 277.455 342.567 252.764 325.705C213.079 298.602 217.33 288.47 167.228 332.597L155.877 323.712C192.674 262.552 206.986 252.037 264.308 294.201Z" fill="#0E538C"/>
<path fill-rule="evenodd" clip-rule="evenodd" d="M217.841 397.389C217.841 397.389 215.696 405.334 214.598 409.398C214.237 410.737 212.943 411.603 211.567 411.427C210.662 411.311 209.839 410.841 209.281 410.119C208.723 409.397 208.474 408.483 208.59 407.578C209.239 402.51 210.38 393.588 210.38 393.588L217.841 397.389Z" fill="#FCD2B1"/>
<path fill-rule="evenodd" clip-rule="evenodd" d="M217.362 408.193C217.343 407.627 206.334 406.667 206.205 407.101C206.168 407.155 206.151 407.217 206.132 407.279C204.366 413.222 198.58 417.034 192.421 416.307C192.067 416.265 191.708 416.29 191.363 416.382C187.555 417.399 185.439 419.559 185.055 422.894C195.81 424.312 206.734 424.054 217.841 421.983L217.362 408.193Z" fill="#0B4870"/>
<path fill-rule="evenodd" clip-rule="evenodd" d="M161.599 335.643C161.86 335.141 152.759 328.874 152.433 329.188C152.374 329.217 152.328 329.261 152.282 329.306C147.813 333.605 140.9 334.065 135.902 330.395C135.614 330.184 135.289 330.028 134.945 329.937C131.13 328.943 128.223 329.778 126.244 332.488C134.899 339.03 144.528 344.194 155.211 347.874L161.599 335.643Z" fill="#0B4870"/>
<path d="M144.633 338.582C144.633 338.582 144.675 338.599 144.633 338.582V338.582Z" fill="#0B4870"/>
<path fill-rule="evenodd" clip-rule="evenodd" d="M279.368 317.165C284.444 317.365 292.266 315.83 296.393 317.165C322.896 325.741 313.919 357.677 284.019 357.548C235.963 357.342 235.389 349.842 219.496 400.293L207.85 399.184C204.049 327.909 208.264 314.371 279.368 317.165Z" fill="#0E538C"/>
<path fill-rule="evenodd" clip-rule="evenodd" d="M286.328 290.658C286.328 290.658 293.777 295.708 297.119 292.124C300.46 288.54 298.144 299.484 298.144 299.484L294.344 303.485L287.465 296.892L280.502 289.465L286.328 290.658Z" fill="#FCD2B1"/>
<path fill-rule="evenodd" clip-rule="evenodd" d="M324.993 256.366C320.156 250.924 311.45 241.372 311.45 241.372C311.45 241.372 296.444 246.212 298.144 255.581C299.843 264.951 300.828 272.587 300.828 272.587L320.077 267.293C320.077 267.293 329.829 261.807 324.993 256.366Z" fill="#FCD2B1"/>
<path fill-rule="evenodd" clip-rule="evenodd" d="M298.102 255.581C298.102 255.581 303.127 304.433 285.122 308.201L284.02 317.165C284.02 317.165 300.615 312.807 304.244 305.41C307.873 298.012 312.268 260.93 312.268 260.93C305.523 261.44 300.619 259.862 298.102 255.581Z" fill="#0B4870"/>
<path fill-rule="evenodd" clip-rule="evenodd" d="M280.158 214.701C273.56 219.475 271.05 228.036 272.965 236.446C273.306 237.943 274.863 245.043 276.754 247.772C286.3 261.552 302.296 257.94 308.298 253.599C317.555 246.902 318.766 232.75 311 222.016C303.235 211.282 289.415 208.005 280.158 214.701Z" fill="#FFE3CA"/>
<path fill-rule="evenodd" clip-rule="evenodd" d="M259.707 226.988C260.524 244.166 286.918 227.398 287.871 223.484C287.73 228.946 290.369 233.187 295.541 236.316C295.541 236.316 294.415 241.834 299.292 244.335C304.167 246.835 311.951 252.427 316.116 247.669C318.961 244.418 319.669 237.444 320.294 231.639C322.991 206.605 301.661 209.753 297.016 207.596C297.016 207.596 258.301 197.4 259.707 226.988Z" fill="#0B4870"/>
<path fill-rule="evenodd" clip-rule="evenodd" d="M294.959 237.243C294.959 234.147 297.468 231.638 300.564 231.638C303.659 231.638 306.169 234.147 306.169 237.243C306.169 237.423 306.169 237.605 306.169 237.786C306.169 241.181 303.417 243.932 300.023 243.932C297.412 243.932 294.959 243.932 294.959 243.932V237.243Z" fill="#FFE3CA"/>
<path d="M315.292 214.532C315.268 214.417 315.292 214.532 315.292 214.532V214.532Z" fill="#602600"/>
<path d="M247.564 266.231L290.274 300.306L291.572 298.662L249.467 265.409C248.745 265.163 247.997 265.683 247.564 266.231Z" fill="#D3D3D3"/>
<path fill-rule="evenodd" clip-rule="evenodd" d="M248.718 266.231L290.924 299.484L284.032 316.952L241.826 283.698L248.718 266.231Z" fill="#F7F7F7"/>
<path d="M283.043 316.784C282.686 318.489 283.232 319.003 285.036 317.859L292.232 299.485C291.916 298.512 291.154 298.385 289.946 299.103L283.043 316.784Z" fill="#D3D3D3"/>
<path d="M240.641 283.311C240.432 283.95 240.489 284.088 240.959 284.517L283.15 318.31L284.459 316.674L242.874 283.367L249.011 266.231H247.566L240.641 283.311Z" fill="#D3D3D3"/>
<path fill-rule="evenodd" clip-rule="evenodd" d="M288.359 315.324C296.21 318.439 300.346 334.981 302.306 353.831C376.839 333.068 352.024 271.617 321.366 252.316C320.068 258.56 315.705 259.983 308.455 260.93C308.247 281.345 307.032 292.942 288.359 315.324Z" fill="#0B4870"/>
<path fill-rule="evenodd" clip-rule="evenodd" d="M294.653 318.038C292.345 317.096 290.335 316.448 288.832 316.022C287.168 315.589 285.785 314.433 285.066 312.872C283.654 309.782 281.353 307.12 278.109 304.911C277.498 304.498 276.994 303.945 276.637 303.3C276.078 302.299 275.31 300.91 275.31 300.91C274.75 299.913 274.012 299.475 273.241 299.485C272.585 299.48 271.983 299.843 271.679 300.424C271.375 301.005 271.422 301.706 271.8 302.243C272.789 303.747 274.451 306.106 275.543 307.655C275.648 307.805 275.645 308.005 275.534 308.151C275.424 308.297 275.232 308.354 275.059 308.294C274.443 308.066 273.78 308.043 273.091 308.186C271.793 308.443 270.449 308.072 269.467 307.185C268.12 305.982 266.559 304.843 264.75 303.771C263.46 303.006 262.265 304.529 262.348 306.138L272.252 313.668C280.155 314.536 286.324 318.789 292.149 323.712C292.148 323.712 299.702 320.097 294.653 318.038Z" fill="#FCD2B1"/>
<path fill-rule="evenodd" clip-rule="evenodd" d="M311.614 317.859C305.331 319.833 297.955 319.186 294.832 318.142C292.726 317.439 289.389 321.934 291.715 323.285C296.855 326.271 306.844 331.141 315.377 333.694C316.883 328.312 313.874 322.404 311.614 317.859Z" fill="#FCD2B1"/>
<path fill-rule="evenodd" clip-rule="evenodd" d="M314.7 333.486C331.106 338.245 363.563 327.862 342.5 273.338C341.445 270.608 334.069 262.109 324.246 265.629C320.35 267.024 312.004 273.395 317.31 284.741C328.94 309.608 318.949 315.584 309.756 318.471C313.827 322.902 316.203 328.111 314.7 333.486Z" fill="#0E538C"/>
<path d="M276.908 286.082C275.786 286.096 274.555 286.359 274.232 287.385C273.869 288.537 275.013 289.769 276.319 289.531C278.979 289.078 281.663 290.809 284.196 292.55C284.196 292.55 286.413 293.206 286.807 291.543C287.168 290.02 284.998 288.914 283.138 287.918C281.201 286.881 279.114 286.053 276.908 286.082Z" fill="#FCD2B1"/>
</svg>
